glasses_airspace_layout.svg

<?xml version="1.0" encoding="UTF-8" standalone="no"?>
<!-- Created with Inkscape (http://www.inkscape.org/) -->

<svg
   width="210mm"
   height="297mm"
   viewBox="0 0 210 297"
   version="1.1"
   id="svg1"
   inkscape:version="1.3 (0e150ed6c4, 2023-07-21)"
   sodipodi:docname="glasses_airspace_layout.svg"
   xml:space="preserve"
   xmlns:inkscape="http://www.inkscape.org/namespaces/inkscape"
   xmlns:sodipodi="http://sodipodi.sourceforge.net/DTD/sodipodi-0.dtd"
   xmlns:xlink="http://www.w3.org/1999/xlink"
   xmlns="http://www.w3.org/2000/svg"
   xmlns:svg="http://www.w3.org/2000/svg"><sodipodi:namedview
     id="namedview1"
     pagecolor="#ffffff"
     bordercolor="#666666"
     borderopacity="1.0"
     inkscape:showpageshadow="2"
     inkscape:pageopacity="0.0"
     inkscape:pagecheckerboard="0"
     inkscape:deskcolor="#d1d1d1"
     inkscape:document-units="mm"
     inkscape:zoom="0.83148686"
     inkscape:cx="24.053296"
     inkscape:cy="214.07434"
     inkscape:window-width="1564"
     inkscape:window-height="1058"
     inkscape:window-x="-3"
     inkscape:window-y="173"
     inkscape:window-maximized="0"
     inkscape:current-layer="layer1" /><defs
     id="defs1"><inkscape:path-effect
       effect="bspline"
       id="path-effect2"
       is_visible="true"
       lpeversion="1.3"
       weight="33.333333"
       steps="2"
       helper_size="0"
       apply_no_weight="true"
       apply_with_weight="true"
       only_selected="false"
       uniform="true" /><inkscape:path-effect
       effect="bspline"
       id="path-effect20"
       is_visible="true"
       lpeversion="1.3"
       weight="33.333333"
       steps="2"
       helper_size="0"
       apply_no_weight="true"
       apply_with_weight="true"
       only_selected="false"
       uniform="true" /><inkscape:path-effect
       effect="bspline"
       id="path-effect12"
       is_visible="true"
       lpeversion="1.3"
       weight="33.333333"
       steps="2"
       helper_size="0"
       apply_no_weight="true"
       apply_with_weight="true"
       only_selected="false"
       uniform="true" /><inkscape:path-effect
       effect="bspline"
       id="path-effect17"
       is_visible="true"
       lpeversion="1.3"
       weight="33.333333"
       steps="2"
       helper_size="0"
       apply_no_weight="true"
       apply_with_weight="true"
       only_selected="false"
       uniform="true" /><inkscape:path-effect
       effect="bspline"
       id="path-effect18"
       is_visible="true"
       lpeversion="1.3"
       weight="33.333333"
       steps="2"
       helper_size="0"
       apply_no_weight="true"
       apply_with_weight="true"
       only_selected="false"
       uniform="true" /></defs><g
     inkscape:label="Layer 1"
     inkscape:groupmode="layer"
     id="layer1"><image
       width="250"
       height="250"
       preserveAspectRatio="none"
       xlink:href="private/Eli_face_scan_1_depthmap_3px_per_mm_color_range_-100to150y.png"
       id="image1-2"
       x="-125"
       y="-125" /><image
       width="250"
       height="250.5291"
       preserveAspectRatio="none"
       xlink:href="private/Eli_face_scan_render_hack.png"
       id="image1-11"
       x="-125"
       y="-125" /><image
       width="144.19792"
       height="60.060417"
       preserveAspectRatio="none"
       xlink:href="private/Eli_face_scan_glasses_hack.png"
       id="image1"
       x="-75.213364"
       y="-23.314117" /><path
       style="fill:none;fill-opacity:1;stroke:#ff0000;stroke-width:0.2;stroke-linecap:round;stroke-linejoin:round;stroke-dasharray:none;stroke-opacity:1"
       d="m 0,-41.89898 c 0,0 15.849816,0.105743 27.299323,0.809061 11.449507,0.703318 15.866466,1.673576 21.208482,5.10817 5.342015,3.434594 10.332992,11.314256 12.940722,16.990487 2.60773,5.676232 3.663972,10.4621532 4.304602,14.9341426 0.640631,4.47198936 0.865635,8.6299552 1.142717,17.4062834 0.277083,8.776328 0.60624,22.170918 -4.554649,29.537586 -5.16089,7.366669 -15.811805,8.705341 -23.33735,8.677634 C 31.478302,51.536677 27.074757,50.141525 24.443102,46.126332 21.811447,42.111139 20.944982,35.473837 20.508866,31.106968 20.072751,26.7401 20.068993,24.664956 18.143099,22.691922 16.217206,20.718889 14.933787,20.0957 12.758231,18.926502 10.582674,17.757304 8.9192492,16.73938 8.9192492,16.73938"
       id="window_to_seal"
       sodipodi:nodetypes="ccccccccccccc"
       inkscape:original-d="m 0,-41.89898 c 0,0 21.907981,0.14616 32.862,0.21924 5.88683,1.293139 12.950981,2.844896 17.66046,3.87941 3.32736,5.253175 8.318337,13.132837 12.47754,19.69931 1.056257,4.78599 2.112499,9.5719113 3.168754,14.35789 0.225005,4.158 0.450009,8.3159658 0.675015,12.47396 0.32916,13.394662 0.658317,26.789252 0.987477,40.183913 -10.650939,1.338675 -21.301854,2.677348 -31.952761,4.01602 -4.400183,-1.394086 -8.803728,-2.789238 -13.200565,-4.182264 -0.866473,-6.63736 -1.732938,-13.274662 -2.6014,-19.927259 -0.0038,-2.08114 -0.0075,-4.156284 -0.01129,-6.23387 -2.56526,-1.245611 -5.131443,-2.49167 -7.697154,-3.7375 -1.149606,-0.703495 -3.4488268,-2.11049 -3.4488268,-2.11049"
       inkscape:path-effect="#path-effect17" /><path
       style="fill:none;fill-opacity:1;stroke:#ff00e6;stroke-width:0.2;stroke-linecap:round;stroke-linejoin:round;stroke-dasharray:none;stroke-opacity:1"
       d="m 0,13.178 c 0,0 2.6297653,0 4.4030007,1.092415 1.7732354,1.092415 2.3163401,2.731712 4.0792032,4.13898 1.7628631,1.407267 5.6945191,1.533554 7.3378501,1.286754 1.643331,-0.246799 1.653535,-0.845623 1.035946,-1.65726 -0.617589,-0.811638 -1.862952,-1.836061 -3.167737,-2.00007 -1.304785,-0.164009 -2.668955,0.5324 -3.7002446,0.175386 C 8.9567288,15.857191 8.2583507,14.446758 7.7484364,12.513994 7.2385222,10.58123 6.9190559,8.141275 5.9018002,6.4924986 4.8845446,4.8437221 4.3155382,4.568604 2.9617076,4.296802 1.6078769,4.025 4e-6,4.025 4e-6,4.025"
       id="nose_clip_face_contact_area"
       inkscape:path-effect="#path-effect18"
       inkscape:original-d="m 0,13.178 c 0,0 3.6349239,0 5.4523943,0 0.7238418,2.18483 1.5924435,4.806601 2.1715187,6.55447 2.621154,0.08419 6.55281,0.210479 9.829269,0.31572 0.0102,-0.59884 0.02041,-1.197664 0.03061,-1.7965 -1.245381,-1.024439 -2.490744,-2.048862 -3.736124,-3.0733 -1.36419,0.69642 -2.72836,1.392829 -4.0925531,2.08925 C 8.9567287,15.857191 8.2583508,14.446758 7.5599701,13.03632 7.2385222,10.58123 6.9190559,8.141275 6.595625,5.67104 5.4538319,5.118976 4.3155382,4.568604 3.1912421,4.025 c -1.0539051,0 -2.1191724,0 -3.1912381,0"
       sodipodi:nodetypes="ccccccccccc" /><path
       style="fill:none;stroke:#0000ff;stroke-width:0.3;stroke-linecap:round;stroke-linejoin:round;stroke-dasharray:none;stroke-opacity:1"
       d="M 0,-125 V 125"
       id="path10"
       sodipodi:nodetypes="cc" /><path
       style="fill:none;stroke:#0000ff;stroke-width:0.3;stroke-linecap:round;stroke-linejoin:round;stroke-dasharray:none;stroke-opacity:1"
       d="M -125,0 H 125"
       id="path13"
       sodipodi:nodetypes="cc" /><path
       style="fill:none;fill-opacity:1;stroke:#ff0000;stroke-width:0.2;stroke-linecap:round;stroke-linejoin:round;stroke-dasharray:2, 0.2, 0;stroke-dashoffset:0;stroke-opacity:1"
       d="m 0,-21.12312 c 0,0 15.849822,0.105743 27.299325,0.809061 11.449503,0.703317 15.866472,1.673577 20.804872,3.090051 4.9384,1.416473 8.718572,3.241859 10.464835,5.455424 1.746263,2.2135642 2.088614,5.1194947 2.593125,8.6327243 0.504512,3.5132296 1.171175,7.6336976 1.669089,12.2261037 0.497914,4.592406 0.827072,9.656704 -3.299428,12.951955 -4.126501,3.29525 -12.708639,4.821425 -19.292761,5.40985 -6.584121,0.588425 -11.170214,0.239099 -15.165516,-1.131859 -3.995301,-1.370957 -7.410189,-3.770853 -10.561247,-5.600848 -3.151057,-1.829995 -6.0589695,-3.104663 -7.4269687,-7.50937 -1.3679993,-4.4047057 -1.3018263,-6.9063576 -2.7036545,-9.3778226 -1.4018283,-2.471465 -4.3816708,-2.4713894 -4.3816708,-2.4713894"
       id="shield_to_face"
       sodipodi:nodetypes="ccccccccccccc"
       inkscape:original-d="m 0,-21.12312 c 0,0 21.907985,0.14616 32.862,0.21924 5.886828,1.293138 12.950987,2.844897 17.66046,3.87941 2.520137,1.216935 6.300309,3.042321 9.45048,4.56349 0.342355,2.9059602 0.684706,5.8118907 1.02706,8.71785 0.666669,4.1204999 1.333332,8.2409679 2,12.36146 0.32916,5.06432 0.658318,10.128618 0.987478,15.19294 -8.582161,1.526179 -17.164299,3.052354 -25.746441,4.57853 -4.586101,-0.349326 -9.172194,-0.698652 -13.758311,-1.04798 -3.404486,-2.392587 -6.819374,-4.792483 -10.21343,-7.17774 -2.908059,-1.274733 -5.8159715,-2.549401 -8.7509629,-3.83594 0.1327868,-5.01997 0.2651659,-10.0245256 0.3959169,-14.96753 -1.9531722,4.95e-5 -3.92742,9.96e-5 -5.91425,1.5e-4"
       inkscape:path-effect="#path-effect2" /></g></svg>

<?xml version="1.0" encoding="UTF-8" standalone="no"?>
<!-- Created with Inkscape (http://www.inkscape.org/) -->

<svg
   width="210mm"
   height="297mm"
   viewBox="0 0 210 297"
   version="1.1"
   id="svg1"
   inkscape:version="1.3 (0e150ed6c4, 2023-07-21)"
   sodipodi:docname="glasses_airspace_layout.svg"
   xml:space="preserve"
   xmlns:inkscape="http://www.inkscape.org/namespaces/inkscape"
   xmlns:sodipodi="http://sodipodi.sourceforge.net/DTD/sodipodi-0.dtd"
   xmlns:xlink="http://www.w3.org/1999/xlink"
   xmlns="http://www.w3.org/2000/svg"
   xmlns:svg="http://www.w3.org/2000/svg"><sodipodi:namedview
     id="namedview1"
     pagecolor="#ffffff"
     bordercolor="#666666"
     borderopacity="1.0"
     inkscape:showpageshadow="2"
     inkscape:pageopacity="0.0"
     inkscape:pagecheckerboard="0"
     inkscape:deskcolor="#d1d1d1"
     inkscape:document-units="mm"
     inkscape:zoom="1.1759"
     inkscape:cx="79.513564"
     inkscape:cy="1.7008249"
     inkscape:window-width="1469"
     inkscape:window-height="1058"
     inkscape:window-x="114"
     inkscape:window-y="316"
     inkscape:window-maximized="0"
     inkscape:current-layer="layer1" /><defs
     id="defs1"><inkscape:path-effect
       effect="bspline"
       id="path-effect2"
       is_visible="true"
       lpeversion="1.3"
       weight="33.333333"
       steps="2"
       helper_size="0"
       apply_no_weight="true"
       apply_with_weight="true"
       only_selected="false"
       uniform="true" /><inkscape:path-effect
       effect="bspline"
       id="path-effect20"
       is_visible="true"
       lpeversion="1.3"
       weight="33.333333"
       steps="2"
       helper_size="0"
       apply_no_weight="true"
       apply_with_weight="true"
       only_selected="false"
       uniform="true" /><inkscape:path-effect
       effect="bspline"
       id="path-effect12"
       is_visible="true"
       lpeversion="1.3"
       weight="33.333333"
       steps="2"
       helper_size="0"
       apply_no_weight="true"
       apply_with_weight="true"
       only_selected="false"
       uniform="true" /><inkscape:path-effect
       effect="bspline"
       id="path-effect17"
       is_visible="true"
       lpeversion="1.3"
       weight="33.333333"
       steps="2"
       helper_size="0"
       apply_no_weight="true"
       apply_with_weight="true"
       only_selected="false"
       uniform="true" /><inkscape:path-effect
       effect="bspline"
       id="path-effect18"
       is_visible="true"
       lpeversion="1.3"
       weight="33.333333"
       steps="2"
       helper_size="0"
       apply_no_weight="true"
       apply_with_weight="true"
       only_selected="false"
       uniform="true" /></defs><g
     inkscape:label="Layer 1"
     inkscape:groupmode="layer"
     id="layer1"><image
       width="250"
       height="250"
       preserveAspectRatio="none"
       xlink:href="private/Eli_face_scan_1_depthmap_3px_per_mm_color_range_-100to150y.png"
       id="image1-2"
       x="-125"
       y="-125" /><image
       width="250"
       height="250.5291"
       preserveAspectRatio="none"
       xlink:href="private/Eli_face_scan_render_hack.png"
       id="image1-11"
       x="-125"
       y="-125" /><image
       width="144.19792"
       height="60.060417"
       preserveAspectRatio="none"
       xlink:href="private/Eli_face_scan_glasses_hack.png"
       id="image1"
       x="-75.213364"
       y="-23.314117" /><path
       style="fill:none;fill-opacity:1;stroke:#ff0000;stroke-width:0.2;stroke-linecap:round;stroke-linejoin:round;stroke-dasharray:none;stroke-opacity:1"
       d="m 0,-41.89898 c 0,0 15.849816,0.105743 27.299323,0.809061 11.449507,0.703318 15.866466,1.673576 21.208482,5.10817 5.342015,3.434594 10.332992,11.314256 12.940722,16.990487 2.60773,5.676232 3.663972,10.4621532 4.304602,14.9341426 0.640631,4.47198936 0.865635,8.6299552 1.142717,17.4062834 0.277083,8.776328 0.60624,22.170918 -4.554649,29.537586 -5.16089,7.366669 -15.811805,8.705341 -23.33735,8.677634 -7.525545,-0.02771 -11.92909,-1.422859 -14.560745,-5.438052 -2.631655,-4.015193 -3.49812,-10.652495 -3.934236,-15.019364 -0.436115,-4.366868 -0.439873,-6.442012 -2.365767,-8.415046 -1.925893,-1.973033 -3.209312,-2.596222 -5.384868,-3.76542 -2.175557,-1.169198 -3.8389818,-2.187122 -3.8389818,-2.187122"
       id="window_to_seal"
       sodipodi:nodetypes="ccccccccccccc"
       inkscape:original-d="m 0,-41.89898 c 0,0 21.907981,0.14616 32.862,0.21924 5.88683,1.293139 12.950981,2.844896 17.66046,3.87941 3.32736,5.253175 8.318337,13.132837 12.47754,19.69931 1.056257,4.78599 2.112499,9.5719113 3.168754,14.35789 0.225005,4.158 0.450009,8.3159658 0.675015,12.47396 0.32916,13.394662 0.658317,26.789252 0.987477,40.183913 -10.650939,1.338675 -21.301854,2.677348 -31.952761,4.01602 -4.400183,-1.394086 -8.803728,-2.789238 -13.200565,-4.182264 -0.866473,-6.63736 -1.732938,-13.274662 -2.6014,-19.927259 -0.0038,-2.08114 -0.0075,-4.156284 -0.01129,-6.23387 -2.56526,-1.245611 -5.131443,-2.49167 -7.697154,-3.7375 -1.149606,-0.703495 -3.4488268,-2.11049 -3.4488268,-2.11049"
       inkscape:path-effect="#path-effect17" /><path
       style="fill:none;fill-opacity:1;stroke:#ff00e6;stroke-width:0.2;stroke-linecap:round;stroke-linejoin:round;stroke-dasharray:none;stroke-opacity:1"
       d="m 0,13.178 c 0,0 2.6297653,0 4.4030007,1.092415 1.7732354,1.092415 2.3163401,2.731712 4.0792032,4.13898 1.7628631,1.407267 5.6945191,1.533554 7.3378501,1.286754 1.643331,-0.246799 1.653535,-0.845623 1.035946,-1.65726 -0.617589,-0.811638 -1.862952,-1.836061 -3.167737,-2.00007 -1.304785,-0.164009 -2.668955,0.5324 -3.7002446,0.175386 C 8.9567288,15.857191 8.2583507,14.446758 7.7484364,12.513994 7.2385222,10.58123 6.9190559,8.141275 5.9018002,6.4924986 4.8845446,4.8437221 4.3155382,4.568604 2.9617076,4.296802 1.6078769,4.025 4e-6,4.025 4e-6,4.025"
       id="nose_clip_face_contact_area"
       inkscape:path-effect="#path-effect18"
       inkscape:original-d="m 0,13.178 c 0,0 3.6349239,0 5.4523943,0 0.7238418,2.18483 1.5924435,4.806601 2.1715187,6.55447 2.621154,0.08419 6.55281,0.210479 9.829269,0.31572 0.0102,-0.59884 0.02041,-1.197664 0.03061,-1.7965 -1.245381,-1.024439 -2.490744,-2.048862 -3.736124,-3.0733 -1.36419,0.69642 -2.72836,1.392829 -4.0925531,2.08925 C 8.9567287,15.857191 8.2583508,14.446758 7.5599701,13.03632 7.2385222,10.58123 6.9190559,8.141275 6.595625,5.67104 5.4538319,5.118976 4.3155382,4.568604 3.1912421,4.025 c -1.0539051,0 -2.1191724,0 -3.1912381,0"
       sodipodi:nodetypes="ccccccccccc" /><path
       style="fill:none;stroke:#0000ff;stroke-width:0.3;stroke-linecap:round;stroke-linejoin:round;stroke-dasharray:none;stroke-opacity:1"
       d="M 0,-125 V 125"
       id="path10"
       sodipodi:nodetypes="cc" /><path
       style="fill:none;stroke:#0000ff;stroke-width:0.3;stroke-linecap:round;stroke-linejoin:round;stroke-dasharray:none;stroke-opacity:1"
       d="M -125,0 H 125"
       id="path13"
       sodipodi:nodetypes="cc" /><path
       style="fill:none;fill-opacity:1;stroke:#ff0000;stroke-width:0.2;stroke-linecap:round;stroke-linejoin:round;stroke-dasharray:2, 0.2, 0;stroke-dashoffset:0;stroke-opacity:1"
       d="m 0,-21.12312 c 0,0 15.849822,0.105743 27.299325,0.809061 11.449503,0.703317 15.866471,1.673577 20.804871,3.09005 4.938401,1.416474 8.718573,3.24186 10.464836,5.455425 1.746263,2.2135642 2.088614,5.1194947 2.593125,8.6327243 0.504512,3.5132296 1.171175,7.6336975 1.669089,12.2261036 0.497914,4.5924061 0.827072,9.6567041 -3.299428,12.9519551 -4.126501,3.29525 -12.708638,4.821425 -19.29276,5.40985 C 33.654936,28.040474 29.068843,27.691148 25.073541,26.32019 21.07824,24.949233 17.663352,22.549336 14.512294,20.719342 11.361237,18.889347 8.4533247,17.614679 7.0853254,13.209972 5.717326,8.8052663 5.783499,6.3036144 4.3816708,3.8321494 2.9798425,1.3606844 0,1.36076 0,1.36076"
       id="shield_to_face"
       sodipodi:nodetypes="ccccccccccccc"
       inkscape:original-d="m 0,-21.12312 c 0,0 21.907985,0.14616 32.862,0.21924 5.886828,1.293138 12.950986,2.844897 17.66046,3.87941 2.520137,1.216935 6.300309,3.042321 9.45048,4.56349 0.342355,2.9059601 0.684706,5.8118907 1.02706,8.71785 0.666669,4.12049987 1.333332,8.2409679 2,12.36146 0.32916,5.06432 0.658318,10.128618 0.987478,15.19294 C 55.405317,25.337449 46.82318,26.863624 38.241037,28.3898 33.654936,28.040474 29.068843,27.691148 24.482726,27.34182 21.07824,24.949233 17.663352,22.549336 14.269296,20.16408 11.361237,18.889347 8.4533245,17.614679 5.5183331,16.32814 5.6511199,11.30817 5.783499,6.3036144 5.91425,1.36061 3.9610778,1.3606595 1.98683,1.3607096 0,1.36076"
       inkscape:path-effect="#path-effect2" /></g></svg>
